src/assets/Cryptologos/Currency=EOS Copy.svg

<svg width="26" height="26" viewBox="0 0 26 26" fill="none" xmlns="http://www.w3.org/2000/svg">
<path opacity="0.2" d="M13 26C20.1797 26 26 20.1797 26 13C26 5.8203 20.1797 0 13 0C5.8203 0 0 5.8203 0 13C0 20.1797 5.8203 26 13 26Z" fill="#505050"/>
<path fill-rule="evenodd" clip-rule="evenodd" d="M18.0472 10.1594L17.7886 9.97601L17.7884 9.9759L17.7881 9.97565L17.7877 9.97541C17.385 9.68992 16.9652 9.39228 16.5529 9.09655C16.5418 9.08811 16.5307 9.07968 16.5169 9.07124C16.4614 9.02906 16.3976 8.98407 16.32 8.95876L16.3145 8.95595C15.0898 8.6557 13.8467 8.34842 12.6357 8.04908L12.2889 7.96336C11.6903 7.81579 11.0924 7.66822 10.4944 7.52065L10.4938 7.52049C9.89566 7.37287 9.2975 7.22524 8.69865 7.07761C8.66815 7.06918 8.63766 7.06074 8.60439 7.05231C8.49626 7.02138 8.3715 6.98763 8.23843 7.00451C8.19961 7.01013 8.16634 7.02419 8.13585 7.04387L8.10258 7.07199C8.0499 7.1226 8.02218 7.18728 8.00832 7.22383L8 7.24633V7.37567L8.00554 7.39536C8.57463 9.01274 9.15468 10.6476 9.72567 12.2569L9.72576 12.2572C9.91414 12.7881 10.1015 13.3163 10.2872 13.8402L10.8053 15.2998L10.8054 15.2999L10.8054 15.3L10.8058 15.3011C11.2183 16.4629 11.6364 17.6407 12.0477 18.8032C12.0838 18.9156 12.1863 18.9888 12.3139 19H12.3416C12.4608 19 12.5662 18.941 12.6188 18.8453L14.8146 15.5976C15.0821 15.2026 15.3497 14.8068 15.6172 14.411C15.8847 14.0152 16.1523 13.6195 16.4198 13.2244C16.5293 13.0627 16.6388 12.9003 16.7484 12.7379C16.8579 12.5755 16.9674 12.4132 17.0769 12.2515L17.122 12.1846C17.4683 11.6713 17.8242 11.1437 18.1775 10.629L18.1969 10.6009V10.5672C18.2053 10.4687 18.208 10.2663 18.0472 10.1594ZM15.4744 11.3432C15.282 11.445 15.0881 11.548 14.893 11.6515L14.8929 11.6516C14.5652 11.8255 14.2344 12.0011 13.9025 12.1756L14.8285 11.1689C15.164 10.8016 15.5122 10.4237 15.8565 10.05L15.8566 10.0499L16.0095 9.88387L16.0178 9.87544C16.0511 9.83045 16.0927 9.78827 16.137 9.74328L16.1601 9.72025C16.1838 9.69671 16.2083 9.67238 16.2313 9.64486C16.4365 9.78827 16.6444 9.93449 16.844 10.0779C16.9882 10.1819 17.1351 10.286 17.2848 10.39C16.6749 10.7049 16.065 11.0283 15.4744 11.3432ZM12.9349 12.5327C13.3424 12.0912 13.7528 11.6441 14.1492 11.2083L14.4986 10.8273C14.9091 10.3797 15.3271 9.92398 15.7434 9.47334C14.9393 9.27508 14.1345 9.07683 13.3298 8.87857C12.5251 8.68035 11.7205 8.48213 10.9166 8.28391C10.631 8.2108 10.3399 8.14051 10.0599 8.07302C9.74108 7.9971 9.4167 7.91837 9.0951 7.83401C9.11159 7.85426 9.12808 7.87423 9.14449 7.8941L9.14449 7.8941L9.1445 7.89411C9.18049 7.9377 9.21608 7.9808 9.25036 8.02522C9.27525 8.05588 9.30014 8.08711 9.32513 8.11846C9.37806 8.18487 9.43139 8.25181 9.48601 8.31484L9.48879 8.31765L10.0225 8.96869L10.5562 9.61956C11.338 10.5728 12.1448 11.5598 12.9349 12.5327ZM12.7547 16.6886L12.7804 16.4428L12.7804 16.4426C12.8031 16.2262 12.8261 16.0075 12.8462 15.7916L12.8711 15.5514C12.8878 15.3908 12.9044 15.2302 12.921 15.0746L12.9386 14.9062C12.9721 14.5849 13.0064 14.2559 13.0347 13.933L13.043 13.8655C13.0707 13.6237 13.0985 13.3734 13.1151 13.1232C13.1456 13.1063 13.1789 13.0894 13.2149 13.0754C13.2253 13.0704 13.2357 13.0657 13.2461 13.061C13.2773 13.0467 13.3085 13.0325 13.3397 13.0135C13.9801 12.6733 14.6205 12.333 15.2637 11.9956C15.9042 11.6582 16.5612 11.3095 17.2127 10.9636C16.6194 11.8353 16.0234 12.7154 15.4467 13.5731L15.1215 14.0543C14.7289 14.6351 14.3301 15.2253 13.933 15.8085C13.8201 15.977 13.7046 16.1473 13.5899 16.3164L13.5899 16.3164C13.5018 16.4464 13.4141 16.5756 13.3286 16.7027C13.1068 17.0289 12.8794 17.3635 12.6577 17.6981C12.6854 17.3607 12.7186 17.0204 12.7547 16.6886ZM8.85329 8.39576C8.86561 8.42982 8.87793 8.46387 8.88994 8.49762C9.5166 10.2675 10.1433 12.0348 10.7699 13.8022C11.0831 14.6855 11.3963 15.5688 11.7095 16.4524L12.0061 17.2876C12.045 17.4029 12.0865 17.5209 12.1281 17.6334C12.1335 17.6486 12.1392 17.6641 12.145 17.68C12.1544 17.7053 12.164 17.7312 12.1725 17.7571C12.1838 17.65 12.1946 17.5428 12.2053 17.4361C12.2181 17.3077 12.2309 17.1801 12.2446 17.0542C12.2497 17.0055 12.2548 16.9567 12.2599 16.9078C12.3134 16.3972 12.3681 15.8742 12.4137 15.3558L12.4165 15.3361C12.4165 15.3361 12.4608 14.9481 12.4802 14.7766C12.4834 14.7484 12.4867 14.7202 12.49 14.6918C12.5012 14.5953 12.5126 14.4976 12.519 14.3998V14.3969C12.5412 14.1973 12.5606 14.0005 12.58 13.8036C12.5923 13.6905 12.6041 13.5755 12.616 13.4596C12.6337 13.2875 12.6516 13.1135 12.6715 12.9404C12.5957 12.8552 12.5244 12.7669 12.4544 12.6801C12.4296 12.6495 12.405 12.619 12.3804 12.5889C12.3083 12.4989 12.2335 12.4061 12.1586 12.319C11.9054 12.0078 11.6522 11.6991 11.399 11.3904C11.2724 11.2361 11.1458 11.0817 11.0192 10.9271C10.2845 10.0329 9.53037 9.11061 8.78182 8.19393C8.804 8.25954 8.82864 8.32765 8.85329 8.39576Z" fill="white"/>
</svg>

<svg width="26" height="26" fill="none" xmlns="http://www.w3.org/2000/svg"><path opacity=".2" d="M13 26c7.18 0 13-5.82 13-13S20.18 0 13 0 0 5.82 0 13s5.82 13 13 13z" fill="#505050"/><path fill-rule="evenodd" clip-rule="evenodd" d="m18.047 10.16-.258-.184h-.001a275.825 275.825 0 0 1-1.271-.905.673.673 0 0 0-.197-.112l-.006-.003c-1.224-.3-2.467-.608-3.678-.907l-.347-.086-1.795-.442-1.795-.443-.095-.026a.905.905 0 0 0-.366-.047.253.253 0 0 0-.102.039l-.033.028a.414.414 0 0 0-.095.152L8 7.246v.13l.006.02c.569 1.617 1.149 3.252 1.72 4.86v.001l.561 1.583.518 1.46v.001l1.243 3.502c.036.113.138.186.266.197h.028c.119 0 .224-.059.277-.155l2.196-3.247a1526.212 1526.212 0 0 0 1.605-2.374c.11-.161.219-.324.328-.486l.329-.486.045-.067c.346-.514.702-1.041 1.055-1.556l.02-.028v-.034c.008-.098.011-.3-.15-.408zm-2.573 1.183-.581.309c-.328.174-.659.35-.99.524l.925-1.007c.336-.367.684-.745 1.029-1.119l.152-.166.009-.009c.033-.045.075-.087.119-.132l.023-.023c.024-.023.048-.048.071-.075.205.143.413.29.613.433.144.104.291.208.44.312-.61.315-1.219.638-1.81.953zm-2.54 1.19c.408-.442.819-.889 1.215-1.325l.35-.38c.41-.448.828-.904 1.244-1.355L13.33 8.88a10757.286 10757.286 0 0 1-3.27-.806 43.771 43.771 0 0 1-.965-.239l.05.06.105.131.075.093c.053.067.106.134.161.197l.003.003.534.65.533.652c.782.953 1.589 1.94 2.379 2.913zm-.18 4.156.026-.246c.023-.217.046-.436.066-.651l.025-.24.05-.477.018-.169c.033-.321.067-.65.096-.973l.008-.067c.028-.242.056-.493.072-.743a.818.818 0 0 1 .1-.048l.031-.014c.031-.014.063-.028.094-.047.64-.34 1.28-.681 1.924-1.018l1.949-1.032c-.594.871-1.19 1.751-1.766 2.61l-.325.48c-.393.581-.792 1.171-1.189 1.755l-.343.507-.261.387c-.222.326-.45.66-.671.995.027-.337.06-.678.097-1.01zm-3.9-8.293.036.102 1.88 5.304.94 2.65.296.836c.039.115.08.233.122.345l.017.047c.01.025.019.051.027.077a62.394 62.394 0 0 0 .073-.703l.015-.146c.053-.51.108-1.034.154-1.552l.002-.02.064-.56.01-.084c.011-.097.023-.194.029-.292v-.003c.022-.2.042-.396.061-.593l.036-.344c.018-.173.036-.347.056-.52a6.99 6.99 0 0 1-.218-.26l-.074-.091a1180.583 1180.583 0 0 1-3.599-4.395l.072.202z" fill="#fff"/></svg>
